X: 1954
T: A Very Old Thing
B: australian traditional tunes wiki
M:6/8
L:1/8
R: Jig
Q: 3/8=100
K:G
V:1 
d2f|"G"g2ba2g|"Em"e2d BGB|"D"ded AFA|"Em"e2dB2d|
"G"g2ba2g|"Em"e2dB3|"D7"ded AFA|1"G"G3:|2"G"G3-G2z||
|:"G"G2BB3|d2GB2d|"D"ded AFA|"Em"e2dB2D|
"G"G2B BGB|d2BG2B|"D7"ded AFA|"G"G3-G2z:||
% abcbook-tune_id 6342d5bed0c6c97d3d41d3a1


% abcbook-boost 0
% abcbook-tablature 
% abcbook-transpose 
% abcbook-lastupdated 1665324490153
% abcbook-soundfonts 
% abcbook-repeats 1
% NFF Book 2008

